X: 4
T: The Maids Of Mitchelstown
R: reel
M: 4/4
L: 1/8
K: Edor
|:E2BA FFA2|B2AB dBAF|E2BA FFA2|B2AF FEED:||:FABc d2BA|Beef g2fe|dBAF G3A|1BdAF FEE2:|2Bdce dBAF|


Tune 120	Setting 12723

